X: 7
T: Cock O' The North
R: jig
M: 6/8
L: 1/8
K: Gmaj
|: d/c/ |B>cB BAG | Bcd e>dc | BcB BAG | ABA A2 d/c/ |
B>cB BAG | BB/c/d edc | BGB AFA | G3- G2 :|
|: d |gGd eGd | gGd eGd | BcB BAG | A3 def |
gdd edd | gdd edd | BGB AFA | G3- G2 :|


Tune 1218	Setting 14514

